X: 17
T:Stack of Wheat, The
M:4/4
L:1/8
R:Hornpipe
K:G
BA[|:GEDE GABG|A2GA Bdef|gedB GABG|dBAG E2BA|!
GEDE GABG|A2GA Bdef|gedB GABG|1AGEF G2BA:|2AGEF G2Bd|]!
edBd edgd|edBd e3f|gedB "var."GABe|dBAG E2Bd|!
edBd edgd|edBd e3f|gedB GABG|AGEF G2Bd||!
edBd edgd|edBd e3f|gedB GABG|dBAG E2BA|!
GEDE GABG|A2GA Bdef|gedB GABG|AGEF G2BA|]!
